src/images/icon/icon_label_normal_cooperator.svg

<svg height="20" viewBox="0 0 20 20" width="20" xmlns="http://www.w3.org/2000/svg"><g fill="none" fill-rule="evenodd"><path d="m8.87538488 2.00162993c1.84094842.10500581 3.28531852 1.59502747 3.35330182 3.41691895l.0020827.18961219v1.58521235c-.0015222 1.28556055-.7147328 2.45827004-1.8414043 3.05459068l-.1812879.0892984.1546154.7787616c.04013.2035463.1332544.3881175.2651737.5382685-.67955771.5977812-1.19965441 1.3825231-1.47762093 2.2917106-.31728033 1.0377772-.28034131 2.099414.04168219 3.0548866l-5.61500413-.0008898c-.28676323 0-.52466048-.209198-.5693723-.4832906l-.00755113-.0935698v-2.5912568c-.00026215-.4722917.28659403-.8922655.71600186-1.0681167l.12053695-.0417627 2.52461534-.7210755c.37438809-.1070353.66656351-.3944552.78259202-.7602204l.03202336-.1246834.15461538-.7776079c-1.16972797-.53452935-1.94141341-1.67019442-2.01664484-2.94300125l-.00604744-.20204153v-1.73058116c-.00044059-.93664712.37879182-1.83348309 1.05109986-2.48571626.67230804-.65223318 1.58028399-1.00417002 2.51659239-.97544607zm5.65602232 11.70299757.0070545.1272553c-.0387868-.3920228-.0411383-.4344412-.0070545-.1272553z" fill="#b6c2cd"/><path d="m15.1522659 7.58733783.9998746.88.0008306 3.88546187c1.1819143.5619439 1.9989624 1.7669017 1.9989624 3.1626913 0 1.9329966-1.5670033 3.5-3.5 3.5-1.9329966 0-3.5-1.5670034-3.5-3.5 0-1.3961849.817511-2.6014298 1.9999668-3.1631686l.0006165-.3649846.9990817-1.32-.9990817-1.31999997zm-.5003324 6.49034377c-.8284271 0-1.5.6715729-1.5 1.5 0 .8284272.6715729 1.5 1.5 1.5.8284272 0 1.5-.6715728 1.5-1.5 0-.8284271-.6715728-1.5-1.5-1.5z" fill="#36435c" fill-rule="nonzero" transform="matrix(.95630476 .2923717 -.2923717 .95630476 4.529177 -3.702602)"/></g></svg>

<?xml version="1.0" encoding="UTF-8"?>
<svg width="20px" height="20px" viewBox="0 0 20 20" version="1.1" xmlns="http://www.w3.org/2000/svg" xmlns:xlink="http://www.w3.org/1999/xlink">
    
    <g id="Dashboard" stroke="none" stroke-width="1" fill="none" fill-rule="evenodd">
        <g id="00-Icon、DropDown" transform="translate(-619.000000, -383.000000)">
            <g id="编组-23" transform="translate(619.000000, 383.000000)">
                <path d="M8.87538488,2.00162993 C10.7163333,2.10663574 12.1607034,3.5966574 12.2286867,5.41854888 L12.2307694,5.60816107 L12.2307694,7.19337342 C12.2292472,8.47893397 11.5160366,9.65164346 10.3893651,10.2479641 L10.2080772,10.3372625 L10.3626926,11.1160241 C10.4028226,11.3195704 10.495947,11.5041416 10.6278663,11.6542926 C9.94830859,12.2520738 9.42821189,13.0368157 9.15024537,13.9460032 C8.83296504,14.9837804 8.86990406,16.0454172 9.19192756,17.0008898 L3.57692343,17 C3.2901602,17 3.05226295,16.790802 3.00755113,16.5167094 L3,16.4231396 L3,13.8318828 C2.99973785,13.3595911 3.28659403,12.9396173 3.71600186,12.7637661 L3.83653881,12.7220034 L6.36115415,12.0009279 C6.73554224,11.8938926 7.02771766,11.6064727 7.14374617,11.2407075 L7.17576953,11.1160241 L7.33038491,10.3384162 C6.16065694,9.80388685 5.3889715,8.66822178 5.31374007,7.39541495 L5.30769263,7.19337342 L5.30769263,5.46279226 C5.30725204,4.52614514 5.68648445,3.62930917 6.35879249,2.977076 C7.03110053,2.32484282 7.93907648,1.97290598 8.87538488,2.00162993 Z M14.5314072,13.7046275 L14.5384617,13.8318828 C14.4996749,13.43986 14.4973234,13.3974416 14.5314072,13.7046275 Z" id="形状" fill="#B6C2CD"></path>
                <path d="M15.1522659,7.58733783 L16.1521405,8.46733783 L16.1529711,12.3527997 C17.3348854,12.9147436 18.1519335,14.1197014 18.1519335,15.515491 C18.1519335,17.4484876 16.5849302,19.015491 14.6519335,19.015491 C12.7189369,19.015491 11.1519335,17.4484876 11.1519335,15.515491 C11.1519335,14.1193061 11.9694445,12.9140612 13.1519003,12.3523224 L13.1525168,11.9873378 L14.1515985,10.6673378 L13.1525168,9.34733783 L15.1522659,7.58733783 Z M14.6519335,14.0776816 C13.8235064,14.0776816 13.1519335,14.7492545 13.1519335,15.5776816 C13.1519335,16.4061088 13.8235064,17.0776816 14.6519335,17.0776816 C15.4803607,17.0776816 16.1519335,16.4061088 16.1519335,15.5776816 C16.1519335,14.7492545 15.4803607,14.0776816 14.6519335,14.0776816 Z" id="形状结合" fill="#36435C" fill-rule="nonzero" transform="translate(14.651934, 13.301414) rotate(-343.000000) translate(-14.651934, -13.301414) "></path>
            </g>
        </g>
    </g>
</svg>
